X: 1679
T: Louden's Bonnie Woods And Braes
C:Duncan MacIntyre, late C18th
B: australian traditional tunes wiki
M:4/4
L:1/8
R: Strathspey
Q: 1/4=100
K:G
V:1 
D|:"G"G2G>A B<d d>B|"C"c>A "G"B>G "D7"A>G (F/E/D)|"G"G2G>A B<dd2|1"C"e>g "D7"f>a "G"g2g>D:|2"C"e>g "D7"f>a "G"g2g>d||
"G"g>a b>g "D7"a>g f>d|"C"e>f (g/f/e) "G"d>B (B/A/G)|"G"g>a b>g "D7"a>g f>d|"C"e>g "D7"f>a"G"g2g>d|
"G"g>a b>g "D7"a>g f>d|"C"e>f (g/f/e) "G"d>B "D7"(c/B/A)|"G"G2G>A B<dd2|"C"e>g "D7"f>a "G"g4||
% abcbook-tune_id 6342d53ad18beb7de9662460


% abcbook-boost 0
% abcbook-tablature 
% abcbook-transpose 
% abcbook-lastupdated 1665324377591
% abcbook-soundfonts 
% abcbook-repeats 1
% NFF Book 2016

